images/cellphone.svg

<svg height="65" viewBox="0 0 54 65" width="54" xmlns="http://www.w3.org/2000/svg"><g fill="#731982" transform=""><path d="m23.12253 4.110672h8.221344v2.826087h-8.221344z"/><path d="m13.616601 48.814229h2.826087v2.826087h-2.826087z"/><path d="m13.616601 43.418972h2.826087v2.826087h-2.826087z"/><path d="m19.011858 48.814229h2.826087v2.826087h-2.826087z"/><path d="m52.6037138 23.020791c-1.8632589 0-4.6736376.6456836-6.7440237 2.5923828v-21.5506738c0-2.24364258-1.8116668-4.0625-4.0464395-4.0625h-29.673932c-2.2347727 0-4.04643955 1.81885742-4.04643955 4.0625v16.25h-4.04643952c-2.23477268 0-4.04643953 1.8188574-4.04643953 4.0625v2.708291c0 1.0406348.39022851 1.9896094 1.03120982 2.708291-.64098131.7188086-1.03120982 1.6676563-1.03120982 2.708291v2.7082911c0 1.0406347.39022851 1.9896093 1.03120982 2.708291-.64098131.7188086-1.03120982 1.6676562-1.03120982 2.708291v2.708291c0 1.0406348.39022851 1.9896094 1.03120982 2.708291-.64098131.7188086-1.03120982 1.6676563-1.03120982 2.708291v2.7082911c0 2.2436425 1.81166685 4.0625 4.04643953 4.0625h4.04643952v5.4170898c0 2.2436426 1.81166685 4.0625 4.04643955 4.0625h29.673932c2.2347727 0 4.0464395-1.8188574 4.0464395-4.0625v-29.3732715c.2159787-2.8993555 2.4386121-5.3184472 5.3952949-5.692959v37.7745215h2.6975842v-39.270791c-.0001265-.7478809-.6039311-1.354209-1.3488554-1.354209zm-40.4643952-20.31249998h29.673932c.7447978 0 1.3487289.60632812 1.3487289 1.35420898v4.0625h-32.3715162v-4.0625c0-.74788086.6039311-1.35420898 1.3488553-1.35420898zm-9.4417344 40.62499998v-2.708291c0-.7478809.6039311-1.354209 1.34885533-1.354209h4.04643952v5.416709h-4.04643952c-.74492423 0-1.34885533-.6063281-1.34885533-1.354209zm0-8.125v-2.708291c0-.7478809.6039311-1.354209 1.34885533-1.354209h4.04643952v5.416709h-4.04643952c-.74492423 0-1.34885533-.6063281-1.34885533-1.354209zm0-10.833291c0-.7478809.6039311-1.354209 1.34885533-1.354209h4.04643952v5.416709h-4.04643952c-.74492423 0-1.34885533-.6063281-1.34885533-1.354209zm1.34885533 28.4375c-.74492423 0-1.34885533-.6063281-1.34885533-1.354209v-2.708291c0-.7478809.6039311-1.354209 1.34885533-1.354209h4.04643952v5.416709zm37.76668457 9.479209h-29.6738055c-.7449242 0-1.3488553-.6063281-1.3488553-1.354209v-4.0625h32.3715162v4.0625c0 .7478809-.6039311 1.354209-1.3488554 1.354209zm1.3488554-8.125h-32.3715162v-8.125-8.125-8.125-8.125-10.833418h32.3715162z"/><path d="m27.1047431 19.0118577c-7.4492248 0-13.4881423 6.038791-13.4881423 13.4881423s6.0389175 13.4881423 13.4881423 13.4881423c7.4459371-.0082193 13.479923-6.0422052 13.4881423-13.4881423 0-7.4492248-6.0389175-13.4881423-13.4881423-13.4881423zm0 24.2785803c-5.9593799 0-10.790438-4.8310582-10.790438-10.790438s4.8310581-10.790438 10.790438-10.790438c5.9565979.0067019 10.783736 4.8338401 10.7904379 10.790438 0 5.9593798-4.8310581 10.790438-10.7904379 10.790438z"/><path d="m27.2332016 28.4535573c.756749 0 1.3702668.6039316 1.3702668 1.3488564h2.7404051c0-1.76172-1.1440514-3.2596625-2.7404051-3.8152897v-1.5800094h-2.7404052v1.5800094c-1.5964822.5555008-2.7405336 2.0535697-2.7405336 3.8152897 0 2.2347744 1.8404249 4.0464427 4.110672 4.0464427.756749 0 1.3702668.6039316 1.3702668 1.3488564s-.6135178 1.3488563-1.3702668 1.3488563-1.3702668-.6039315-1.3702668-1.3488563h-2.7404052c0 1.7617199 1.1440514 3.2596624 2.7404052 3.8152896v1.579883h2.7404051v-1.5800094c1.5963538-.5556272 2.7404052-2.0535697 2.7404052-3.8152897 0-2.2347744-1.8404249-4.0464427-4.110672-4.0464427-.756749 0-1.3702668-.6039316-1.3702668-1.3488564.0001285-.7447983.6136463-1.3487299 1.3703953-1.3487299z"/><path d="m38.023715 13.616601h2.826087v2.826087h-2.826087z"/><path d="m38.023715 19.011858h2.826087v2.826087h-2.826087z"/><path d="m32.628459 13.616601h2.826087v2.826087h-2.826087z"/></g></svg>

<?xml version="1.0" encoding="UTF-8"?>
<svg width="54px" height="65px" viewBox="0 0 54 65" version="1.1" xmlns="http://www.w3.org/2000/svg" xmlns:xlink="http://www.w3.org/1999/xlink">
    <!-- Generator: Sketch 48.2 (47327) - http://www.bohemiancoding.com/sketch -->
    <title>001-cellphone</title>
    <desc>Created with Sketch.</desc>
    <defs></defs>
    <g id="Desktop-HD-Copy-25" stroke="none" stroke-width="1" fill="none" fill-rule="evenodd" transform="translate(-1015.000000, -1479.000000)">
        <g id="Group-12" transform="translate(1015.000000, 1479.000000)" fill="#731982" fill-rule="nonzero">
            <g id="001-cellphone">
                <rect id="Rectangle-path" x="23.1225296" y="4.11067194" width="8.22134387" height="2.82608696"></rect>
                <rect id="Rectangle-path" x="13.6166008" y="48.8142292" width="2.82608696" height="2.82608696"></rect>
                <rect id="Rectangle-path" x="13.6166008" y="43.4189723" width="2.82608696" height="2.82608696"></rect>
                <rect id="Rectangle-path" x="19.0118577" y="48.8142292" width="2.82608696" height="2.82608696"></rect>
                <path d="M52.6037138,23.020791 C50.7404549,23.020791 47.9300762,23.6664746 45.8596901,25.6131738 L45.8596901,4.0625 C45.8596901,1.81885742 44.0480233,0 41.8132506,0 L12.1393186,0 C9.9045459,0 8.09287905,1.81885742 8.09287905,4.0625 L8.09287905,20.3125 L4.04643953,20.3125 C1.81166685,20.3125 0,22.1313574 0,24.375 L0,27.083291 C0,28.1239258 0.390228512,29.0729004 1.03120982,29.791582 C0.390228512,30.5103906 0,31.4592383 0,32.499873 L0,35.2081641 C0,36.2487988 0.390228512,37.1977734 1.03120982,37.9164551 C0.390228512,38.6352637 0,39.5841113 0,40.6247461 L0,43.3330371 C0,44.3736719 0.390228512,45.3226465 1.03120982,46.0413281 C0.390228512,46.7601367 0,47.7089844 0,48.7496191 L0,51.4579102 C0,53.7015527 1.81166685,55.5204102 4.04643953,55.5204102 L8.09287905,55.5204102 L8.09287905,60.9375 C8.09287905,63.1811426 9.9045459,65 12.1393186,65 L41.8132506,65 C44.0480233,65 45.8596901,63.1811426 45.8596901,60.9375 L45.8596901,31.5642285 C46.0756688,28.664873 48.2983022,26.2457813 51.254985,25.8712695 L51.254985,63.645791 L53.9525692,63.645791 L53.9525692,24.375 C53.9524427,23.6271191 53.3486381,23.020791 52.6037138,23.020791 Z M12.1393186,2.70829102 L41.8132506,2.70829102 C42.5580484,2.70829102 43.1619795,3.31461914 43.1619795,4.0625 L43.1619795,8.125 L10.7904633,8.125 L10.7904633,4.0625 C10.7904633,3.31461914 11.3943944,2.70829102 12.1393186,2.70829102 Z M2.6975842,43.333291 L2.6975842,40.625 C2.6975842,39.8771191 3.3015153,39.270791 4.04643953,39.270791 L8.09287905,39.270791 L8.09287905,44.6875 L4.04643953,44.6875 C3.3015153,44.6875 2.6975842,44.0811719 2.6975842,43.333291 Z M2.6975842,35.208291 L2.6975842,32.5 C2.6975842,31.7521191 3.3015153,31.145791 4.04643953,31.145791 L8.09287905,31.145791 L8.09287905,36.5625 L4.04643953,36.5625 C3.3015153,36.5625 2.6975842,35.9561719 2.6975842,35.208291 Z M2.6975842,24.375 C2.6975842,23.6271191 3.3015153,23.020791 4.04643953,23.020791 L8.09287905,23.020791 L8.09287905,28.4375 L4.04643953,28.4375 C3.3015153,28.4375 2.6975842,27.8311719 2.6975842,27.083291 L2.6975842,24.375 Z M4.04643953,52.8125 C3.3015153,52.8125 2.6975842,52.2061719 2.6975842,51.458291 L2.6975842,48.75 C2.6975842,48.0021191 3.3015153,47.395791 4.04643953,47.395791 L8.09287905,47.395791 L8.09287905,52.8125 L4.04643953,52.8125 Z M41.8131241,62.291709 L12.1393186,62.291709 C11.3943944,62.291709 10.7904633,61.6853809 10.7904633,60.9375 L10.7904633,56.875 L43.1619795,56.875 L43.1619795,60.9375 C43.1619795,61.6853809 42.5580484,62.291709 41.8131241,62.291709 Z M43.1619795,54.166709 L10.7904633,54.166709 L10.7904633,46.041709 L10.7904633,37.916709 L10.7904633,29.791709 L10.7904633,21.666709 L10.7904633,10.833291 L43.1619795,10.833291 L43.1619795,54.166709 Z" id="Shape"></path>
                <path d="M27.1047431,19.0118577 C19.6555183,19.0118577 13.6166008,25.0506487 13.6166008,32.5 C13.6166008,39.9493513 19.6555183,45.9881423 27.1047431,45.9881423 C34.5506802,45.979923 40.5846661,39.9459371 40.5928854,32.5 C40.5928854,25.0507752 34.5539679,19.0118577 27.1047431,19.0118577 Z M27.1047431,43.290438 C21.1453632,43.290438 16.3143051,38.4593798 16.3143051,32.5 C16.3143051,26.5406202 21.1453632,21.709562 27.1047431,21.709562 C33.061341,21.7162639 37.8884791,26.5434021 37.895181,32.5 C37.895181,38.4593798 33.0641229,43.290438 27.1047431,43.290438 Z" id="Shape"></path>
                <path d="M27.2332016,28.4535573 C27.9899506,28.4535573 28.6034684,29.0574889 28.6034684,29.8024137 L31.3438735,29.8024137 C31.3438735,28.0406937 30.1998221,26.5427512 28.6034684,25.987124 L28.6034684,24.4071146 L25.8630632,24.4071146 L25.8630632,25.987124 C24.266581,26.5426248 23.1225296,28.0406937 23.1225296,29.8024137 C23.1225296,32.0371881 24.9629545,33.8488564 27.2332016,33.8488564 C27.9899506,33.8488564 28.6034684,34.452788 28.6034684,35.1977128 C28.6034684,35.9426376 27.9899506,36.5465691 27.2332016,36.5465691 C26.4764526,36.5465691 25.8629348,35.9426376 25.8629348,35.1977128 L23.1225296,35.1977128 C23.1225296,36.9594327 24.266581,38.4573752 25.8629348,39.0130024 L25.8629348,40.5928854 L28.6033399,40.5928854 L28.6033399,39.012876 C30.1996937,38.4572488 31.3437451,36.9593063 31.3437451,35.1975863 C31.3437451,32.9628119 29.5033202,31.1511436 27.2330731,31.1511436 C26.4763241,31.1511436 25.8628063,30.547212 25.8628063,29.8022872 C25.8629348,29.0574889 26.4764526,28.4535573 27.2332016,28.4535573 Z" id="Shape"></path>
                <rect id="Rectangle-path" x="38.0237154" y="13.6166008" width="2.82608696" height="2.82608696"></rect>
                <rect id="Rectangle-path" x="38.0237154" y="19.0118577" width="2.82608696" height="2.82608696"></rect>
                <rect id="Rectangle-path" x="32.6284585" y="13.6166008" width="2.82608696" height="2.82608696"></rect>
            </g>
        </g>
    </g>
</svg>
